X: 1903
T: Sunshine Waltz
C:Arthur Bowley, (1913-2006)
B: australian traditional tunes wiki
M:3/4
L:1/8
R: Waltz
Q: 1/4=100
K:C
V:1 
EF^F|:"C"G3c d^d|"Am"e3c Bc|"Dm"A4B2|"G"G3E F^F|"C"G3A Bc|d3c BA|"G7"f6-|f6|
"A7"e3d ^cd|g4e2|"D7"d4e2|c6|B3A ^GA|e4^d2|"G7"d6-|d3E F^F|
"C"G3c d^d|"Am"e3c Bc|"Dm"A4B2|"G"G3E F^F|"C"G3c de|d3c de|"F"A6-|"Dm"A6|
f4A2|"G"A4f2|"C"e4G2|"Am"G3^F G^G|"D7"A3^G A^A|"G"B4G2|1"C"c6-|c3E F^F:|2"C"c6-|c6||
% abcbook-tune_id 6342d53ac9bbec6512ac4433


% abcbook-boost 0
% abcbook-tablature 
% abcbook-transpose 
% abcbook-lastupdated 1665324391750
% abcbook-soundfonts 
% abcbook-repeats 1
% NFF Book 2010

